img/instagram.svg

<svg width="19" height="19" viewBox="0 0 19 19" fill="none" xmlns="http://www.w3.org/2000/svg">
<path d="M9.00195 18.041C6.54195 18.041 6.25195 18.028 5.29195 17.986C4.54332 17.9614 3.80439 17.8092 3.10695 17.536C1.90026 17.0664 0.946094 16.1119 0.476953 14.905C0.214259 14.205 0.072571 13.4655 0.0579531 12.718C0.00195312 11.76 0.00195312 11.446 0.00195312 9.005C0.00195312 6.538 0.0149531 6.25 0.0579531 5.295C0.0728908 4.54853 0.214574 3.81001 0.476953 3.111C0.945584 1.90253 1.9013 0.947177 3.10995 0.479005C3.8086 0.215207 4.5473 0.0731492 5.29395 0.0590049C6.24895 0.00500488 6.56295 0.00500488 9.00195 0.00500488C11.482 0.00500488 11.767 0.0180049 12.712 0.0590049C13.4605 0.0732715 14.2012 0.215315 14.902 0.479005C16.1103 0.947708 17.0658 1.90288 17.535 3.111C17.8021 3.8202 17.9445 4.57026 17.956 5.328C18.012 6.28601 18.012 6.59901 18.012 9.03901C18.012 11.479 17.998 11.799 17.956 12.746C17.9411 13.4942 17.799 14.2344 17.536 14.935C17.0656 16.1427 16.11 17.0976 14.902 17.567C14.2022 17.8292 13.4631 17.9709 12.716 17.986C11.761 18.041 11.448 18.041 9.00195 18.041ZM8.96795 1.588C6.52195 1.588 6.26795 1.6 5.31295 1.643C4.74294 1.65056 4.17843 1.75575 3.64395 1.954C2.85471 2.25601 2.23018 2.878 1.92495 3.666C1.72517 4.2063 1.61996 4.77698 1.61395 5.353C1.56095 6.322 1.56095 6.576 1.56095 9.005C1.56095 11.405 1.56995 11.696 1.61395 12.659C1.62291 13.2292 1.72805 13.7938 1.92495 14.329C2.23063 15.1165 2.85505 15.738 3.64395 16.04C4.17807 16.2396 4.7428 16.3448 5.31295 16.351C6.28095 16.407 6.53595 16.407 8.96795 16.407C11.421 16.407 11.675 16.395 12.622 16.351C13.1924 16.3441 13.7573 16.2389 14.292 16.04C15.0764 15.7354 15.6969 15.1153 16.002 14.331C16.2014 13.7903 16.3065 13.2193 16.313 12.643H16.324C16.367 11.687 16.367 11.432 16.367 8.98901C16.367 6.54601 16.356 6.289 16.313 5.334C16.304 4.76446 16.1988 4.20052 16.002 3.666C15.6976 2.88058 15.077 2.2593 14.292 1.954C13.7574 1.75475 13.1924 1.64953 12.622 1.643C11.655 1.588 11.402 1.588 8.96795 1.588ZM9.00195 13.624C7.13194 13.6252 5.44537 12.4997 4.72882 10.7725C4.01226 9.04518 4.40686 7.05634 5.72858 5.73347C7.05031 4.4106 9.03882 4.01428 10.7667 4.72934C12.4946 5.4444 13.6215 7.12999 13.622 9C13.6192 11.5511 11.553 13.619 9.00195 13.624ZM9.00195 5.998C7.3451 5.998 6.00195 7.34115 6.00195 8.998C6.00195 10.6549 7.3451 11.998 9.00195 11.998C10.6588 11.998 12.002 10.6549 12.002 8.998C11.9981 7.34275 10.6572 6.00185 9.00195 5.998ZM13.802 5.28501C13.2074 5.2828 12.7269 4.79959 12.728 4.20501C12.7291 3.61043 13.2114 3.12901 13.806 3.12901C14.4005 3.12901 14.8828 3.61042 14.884 4.205C14.8842 4.49187 14.7702 4.76703 14.5672 4.96968C14.3642 5.17234 14.0888 5.2858 13.802 5.28501Z" fill="#2E3A59"/>
</svg>

<?xml version="1.0" encoding="utf-8"?>
<!-- Generator: Adobe Illustrator 22.0.1, SVG Export Plug-In . SVG Version: 6.00 Build 0)  -->
<svg version="1.1" id="Layer_1" xmlns="http://www.w3.org/2000/svg" xmlns:xlink="http://www.w3.org/1999/xlink" x="0px" y="0px"
	 viewBox="0 0 19 19" style="enable-background:new 0 0 19 19;" xml:space="preserve">
<style type="text/css">
	.st0{fill:#FFFFFF;}
</style>
<path class="st0" d="M9,18c-2.5,0-2.8,0-3.7-0.1c-0.7,0-1.5-0.2-2.2-0.5c-1.2-0.5-2.2-1.4-2.6-2.6c-0.3-0.7-0.4-1.4-0.4-2.2
	C0,11.8,0,11.4,0,9c0-2.5,0-2.8,0.1-3.7c0-0.7,0.2-1.5,0.4-2.2c0.5-1.2,1.4-2.2,2.6-2.6c0.7-0.3,1.4-0.4,2.2-0.4C6.2,0,6.6,0,9,0
	c2.5,0,2.8,0,3.7,0.1c0.7,0,1.5,0.2,2.2,0.4c1.2,0.5,2.2,1.4,2.6,2.6c0.3,0.7,0.4,1.5,0.4,2.2C18,6.3,18,6.6,18,9
	c0,2.4,0,2.8-0.1,3.7c0,0.7-0.2,1.5-0.4,2.2c-0.5,1.2-1.4,2.2-2.6,2.6c-0.7,0.3-1.4,0.4-2.2,0.4C11.8,18,11.4,18,9,18z M9,1.6
	c-2.4,0-2.7,0-3.7,0.1C4.7,1.7,4.2,1.8,3.6,2C2.9,2.3,2.2,2.9,1.9,3.7C1.7,4.2,1.6,4.8,1.6,5.4C1.6,6.3,1.6,6.6,1.6,9
	c0,2.4,0,2.7,0.1,3.7c0,0.6,0.1,1.1,0.3,1.7c0.3,0.8,0.9,1.4,1.7,1.7c0.5,0.2,1.1,0.3,1.7,0.3c1,0.1,1.2,0.1,3.7,0.1
	c2.5,0,2.7,0,3.7-0.1c0.6,0,1.1-0.1,1.7-0.3c0.8-0.3,1.4-0.9,1.7-1.7c0.2-0.5,0.3-1.1,0.3-1.7h0c0-1,0-1.2,0-3.7
	c0-2.4,0-2.7-0.1-3.7c0-0.6-0.1-1.1-0.3-1.7c-0.3-0.8-0.9-1.4-1.7-1.7c-0.5-0.2-1.1-0.3-1.7-0.3C11.7,1.6,11.4,1.6,9,1.6z M9,13.6
	c-1.9,0-3.6-1.1-4.3-2.9C4,9,4.4,7.1,5.7,5.7c1.3-1.3,3.3-1.7,5-1c1.7,0.7,2.9,2.4,2.9,4.3C13.6,11.6,11.6,13.6,9,13.6z M9,6
	C7.3,6,6,7.3,6,9c0,1.7,1.3,3,3,3s3-1.3,3-3C12,7.3,10.7,6,9,6z M13.8,5.3c-0.6,0-1.1-0.5-1.1-1.1c0-0.6,0.5-1.1,1.1-1.1
	c0.6,0,1.1,0.5,1.1,1.1c0,0.3-0.1,0.6-0.3,0.8C14.4,5.2,14.1,5.3,13.8,5.3z"/>
</svg>
